X:20
T:Negro Hornpipe or Sand Jig (Craig 20)
M:C
L:1/8
B:Empire Violin Collection of Hornpipes
H:Published by Thomas Craig
H:Music Publisher, &c.
H:George Street, Aberdeen, N.B.
Z:Peter Dunk December 2011
R:hornpipe
Q:1/4=140
K:C
E2 (3GEG c>GE>G | F2 (3AFA c>AF>A | G>BG>B d>BG>B | c>ec>e g>ec>G | E2 (3GEG c>GE>G |!
F2 (3AFA c>AF>A | g>Bd>B G>fd>B | c2c2c2z H:: A2 (3cAc e>cA>c | B>eB>^G e>e^F>G | A2 (3cAc e>cA>c |!
G>eB>^G  E2e2 | B>eB>^G E2e2 | (3efe (3ded (3cdc (3BcB |1A2a2a2z :|2 A3 z [B4F4] !D.C.! |]

